Newaita-dark/apps/48/com.github.cassidyjames.clairvoyant.svg

<svg height="48" viewBox="0 0 48 48" width="48" xmlns="http://www.w3.org/2000/svg" xmlns:xlink="http://www.w3.org/1999/xlink"><linearGradient id="a"><stop offset="0" stop-opacity=".313726"/><stop offset=".222222" stop-opacity=".27451"/><stop offset="1" stop-opacity="0"/></linearGradient><radialGradient id="b" cx="450.908936" cy="189.579361" gradientTransform="matrix(.00000026 -.117199 -.210958 -.00000015 66.784728 95.392994)" gradientUnits="userSpaceOnUse" r="21.166656" xlink:href="#a"/><radialGradient id="c" cx="450.908936" cy="189.579361" gradientTransform="matrix(-.00000026 .117199 .210958 .00000015 -19.155178 -11.291223)" gradientUnits="userSpaceOnUse" r="21.166656" xlink:href="#a"/><radialGradient id="d" cx="450.908936" cy="189.579361" gradientTransform="matrix(-.00000026 -.117199 .210958 -.00000015 -19.155178 95.392994)" gradientUnits="userSpaceOnUse" r="21.166656" xlink:href="#a"/><radialGradient id="e" cx="450.908936" cy="189.579361" gradientTransform="matrix(.00000026 .117199 -.210958 .00000015 66.784725 -11.291224)" gradientUnits="userSpaceOnUse" r="21.166656" xlink:href="#a"/><linearGradient id="f" gradientTransform="matrix(.0200401 0 0 .093759 18.698079 20.158175)" gradientUnits="userSpaceOnUse" x1="255.323059" x2="255.323044" y1="233.5" y2="254.666656"><stop offset="0" stop-opacity=".27451"/><stop offset="1" stop-opacity="0"/></linearGradient><linearGradient id="g" gradientUnits="userSpaceOnUse" x1="23.814786" x2="23.814786" y1="4.34415649995" y2="42.0509015"><stop offset="0" stop-color="#90a4ae"/><stop offset="1" stop-color="#546e7a"/></linearGradient><linearGradient id="h" gradientTransform="matrix(.093759 0 0 -.093759 0 20.158175)" gradientUnits="userSpaceOnUse" x1="254" x2="254" y1="-170" y2="105.166656"><stop offset="0" stop-color="#bdbdbd"/><stop offset="1" stop-color="#e0e0e0"/></linearGradient><linearGradient id="i" gradientUnits="userSpaceOnUse" x1="23.814816" x2="23.814816" y1="10.29787629293" y2="36.09726180616"><stop offset="0" stop-color="#616161"/><stop offset="1" stop-color="#424242"/></linearGradient><path d="m27.289062 42.050781h3.96875v-1.984375h-3.96875zm0 0" fill="url(#b)"/><path d="m20.339844 42.050781h-3.96875v1.984375h3.96875zm0 0" fill="url(#c)"/><path d="m20.339844 42.050781h-3.96875v-1.984375h3.96875zm0 0" fill="url(#d)"/><path d="m27.289062 42.050781h3.96875v1.984375h-3.96875zm0 0" fill="url(#e)"/><path d="m20.339844 41.554688h6.949218v2.480468h-6.949218zm0 0" fill="url(#f)"/><path d="m23.816406 4.34375c10.410156 0 18.851563 8.441406 18.851563 18.855469 0 10.410156-8.441407 18.851562-18.851563 18.851562-10.414062 0-18.855468-8.441406-18.855468-18.851562 0-10.414063 8.441406-18.855469 18.855468-18.855469zm0 0" fill="url(#g)"/><path d="m23.816406 42.050781c-10.445312 0-18.855468-8.410156-18.855468-18.851562 0-.0625 0-.125 0-.1875.101562 10.359375 8.472656 18.667969 18.855468 18.667969 10.382813 0 18.753906-8.308594 18.851563-18.667969v.1875c0 10.441406-8.410157 18.851562-18.851563 18.851562zm0 0" fill-opacity=".196078"/><path d="m23.816406 4.34375c-10.445312 0-18.855468 8.410156-18.855468 18.855469v.183593c.101562-10.359374 8.472656-18.667968 18.855468-18.667968 10.382813 0 18.753906 8.308594 18.851563 18.667968 0-.0625 0-.125 0-.183593 0-10.445313-8.410157-18.855469-18.851563-18.855469zm0 0" fill="#fff" fill-opacity=".392157"/><path d="m23.816406 4.203125c-10.523437 0-18.996094 8.472656-18.996094 18.996094 0 10.519531 8.472657 18.992187 18.996094 18.992187 10.519532 0 18.992188-8.472656 18.992188-18.992187 0-10.523438-8.472656-18.996094-18.992188-18.996094zm0 .28125c10.367188 0 18.710938 8.34375 18.710938 18.714844 0 10.367187-8.34375 18.710937-18.710938 18.710937-10.371094 0-18.714844-8.34375-18.714844-18.710937 0-10.371094 8.34375-18.714844 18.714844-18.714844zm0 0" fill="#212121"/><path d="m23.816406 36.097656c7.121094 0 12.898438-5.777344 12.898438-12.898437 0-7.125-5.777344-12.902344-12.898438-12.902344-7.125 0-12.902344 5.777344-12.902344 12.902344 0 7.121093 5.777344 12.898437 12.902344 12.898437zm0 0" fill="url(#h)"/><path d="m23.816406 10.296875c-7.148437 0-12.902344 5.753906-12.902344 12.902344 0 .164062.003907.328125.011719.496093.257813-6.917968 5.910157-12.40625 12.890625-12.40625 6.980469 0 12.628906 5.488282 12.890625 12.40625.003907-.167968.007813-.332031.007813-.496093 0-7.148438-5.753906-12.902344-12.898438-12.902344zm0 0" fill-opacity=".235294"/><path d="m10.925781 23.695312c-.007812.164063-.011719.328126-.011719.496094 0 7.144532 5.753907 12.898438 12.902344 12.898438 7.144532 0 12.898438-5.753906 12.898438-12.898438 0-.167968-.003906-.332031-.007813-.496094-.261719 6.914063-5.910156 12.402344-12.890625 12.402344-6.980468 0-12.632812-5.488281-12.890625-12.402344zm0 0" fill="#fff" fill-opacity=".392157"/><path d="m254.017409-170.004901c75.951081 0 137.570196 61.619116 137.570196 137.570197 0 75.992743-61.619115 137.611858-137.570196 137.611858-75.992743 0-137.611859-61.619115-137.611859-137.611858 0-75.951081 61.619116-137.570197 137.611859-137.570197zm0 0" fill="none" stroke="#212121" stroke-linecap="round" stroke-width="3" transform="matrix(.093759 0 0 -.093759 0 20.158175)"/><path d="m21.832031 15.257812c-1.652343 0-2.980469 1.328126-2.980469 2.976563v1.984375c0 1.039062.527344 1.949219 1.328126 2.484375-.800782.53125-1.328126 1.441406-1.328126 2.480469v2.976562c0 1.648438 1.328126 2.976563 2.980469 2.976563h3.96875c1.648438 0 2.976563-1.328125 2.976563-2.976563v-2.976562c0-1.039063-.527344-1.949219-1.328125-2.480469.800781-.535156 1.328125-1.445313 1.328125-2.484375v-1.984375c0-1.648437-1.328125-2.976563-2.976563-2.976563zm.496094 1.984376h2.976563c.824218 0 1.488281.664062 1.488281 1.488281v1.488281c0 .828125-.664063 1.492188-1.488281 1.492188h-2.976563c-.828125 0-1.488281-.664063-1.488281-1.492188v-1.488281c0-.824219.660156-1.488281 1.488281-1.488281zm0 6.453124h2.976563c.824218 0 1.488281.664063 1.488281 1.488282v2.480468c0 .824219-.664063 1.488282-1.488281 1.488282h-2.976563c-.828125 0-1.488281-.664063-1.488281-1.488282v-2.480468c0-.824219.660156-1.488282 1.488281-1.488282zm0 0" fill="url(#i)"/><path d="m21.832031 15.257812c-1.652343 0-2.980469 1.328126-2.980469 2.976563v.496094c0-1.648438 1.328126-2.976563 2.980469-2.976563h3.96875c1.648438 0 2.976563 1.328125 2.976563 2.976563v-.496094c0-1.648437-1.328125-2.976563-2.976563-2.976563zm-.992187 4.960938v.5c0 .824219.660156 1.488281 1.488281 1.488281h2.976563c.824218 0 1.488281-.664062 1.488281-1.488281v-.5c0 .828125-.664063 1.492188-1.488281 1.492188h-2.976563c-.828125 0-1.488281-.664063-1.488281-1.492188zm-.980469 2.730469c-.617187.542969-1.007813 1.339843-1.007813 2.234375v.496094c0-1.039063.527344-1.949219 1.328126-2.480469-.113282-.078125-.21875-.160157-.320313-.25zm7.914063 0c-.101563.089843-.210938.171875-.324219.25.800781.53125 1.328125 1.441406 1.328125 2.480469v-.496094c0-.894532-.390625-1.691406-1.003906-2.234375zm-6.933594 4.714843v.496094c0 .824219.660156 1.488282 1.488281 1.488282h2.976563c.824218 0 1.488281-.664063 1.488281-1.488282v-.496094c0 .824219-.664063 1.488282-1.488281 1.488282h-2.976563c-.828125 0-1.488281-.664063-1.488281-1.488282zm0 0" fill="#fff" fill-opacity=".313726"/><path d="m22.328125 17.242188c-.828125 0-1.488281.664062-1.488281 1.488281v.746093c0-.824218.660156-1.488281 1.488281-1.488281h2.976563c.824218 0 1.488281.664063 1.488281 1.488281v-.746093c0-.824219-.664063-1.488281-1.488281-1.488281zm-3.476563 2.976562v.746094c0 .824218.335938 1.570312.875 2.109375.136719-.140625.289063-.265625.453126-.371094-.800782-.535156-1.328126-1.445313-1.328126-2.484375zm9.925782 0c0 1.039062-.527344 1.949219-1.328125 2.484375.164062.105469.316406.230469.453125.371094.539062-.539063.875-1.285157.875-2.109375zm-6.449219 3.476562c-.828125 0-1.488281.664063-1.488281 1.488282v.742187c0-.824219.660156-1.488281 1.488281-1.488281h2.976563c.824218 0 1.488281.664062 1.488281 1.488281v-.742187c0-.824219-.664063-1.488282-1.488281-1.488282zm-3.476563 4.464844v.742188c0 1.648437 1.328126 2.976562 2.980469 2.976562h3.96875c1.648438 0 2.976563-1.328125 2.976563-2.976562v-.742188c0 1.648438-1.328125 2.976563-2.976563 2.976563h-3.96875c-1.652343 0-2.980469-1.328125-2.980469-2.976563zm0 0" fill-opacity=".235294"/><path d="m880.073484 615.059407c-66.607816 0-120.146013 53.538198-120.146013 119.988548v79.992366c0 41.885766 21.257813 78.575177 53.538197 100.147922-32.280384 21.415278-53.538197 58.10469-53.538197 99.990456v119.988548c0 66.450351 53.538197 119.988548 120.146013 119.988548h159.98473c66.450351 0 119.988548-53.538197 119.988548-119.988548v-119.988548c0-41.885766-21.257813-78.575178-53.538197-99.990456 32.280384-21.572745 53.538197-58.262156 53.538197-100.147922v-79.992366c0-66.45035-53.538197-119.988548-119.988548-119.988548zm19.998091 79.992366h119.988548c33.225175 0 59.994274 26.769098 59.994274 59.994274v59.994274c0 33.38264-26.769099 60.151739-59.994274 60.151739h-119.988548c-33.382641 0-59.994274-26.769099-59.994274-60.151739v-59.994274c0-33.225176 26.611633-59.994274 59.994274-59.994274zm0 260.132652h119.988548c33.225175 0 59.994274 26.769099 59.994274 59.994274v99.990457c0 33.225175-26.769099 59.994274-59.994274 59.994274h-119.988548c-33.382641 0-59.994274-26.769099-59.994274-59.994274v-99.990457c0-33.225175 26.611633-59.994274 59.994274-59.994274zm0 0" fill="none" stroke="#212121" stroke-linecap="round" stroke-linejoin="round" stroke-width="11.338583" transform="scale(.0248071)"/></svg>

<?xml version="1.0" encoding="UTF-8"?>
<svg xmlns="http://www.w3.org/2000/svg" xmlns:xlink="http://www.w3.org/1999/xlink" width="48px" height="48px" viewBox="0 0 48 48" version="1.1">
<defs>
<radialGradient id="radial0" gradientUnits="userSpaceOnUse" cx="450.908936" cy="189.579361" fx="450.908936" fy="189.579361" r="21.166656" gradientTransform="matrix(0.000000261256,-0.117199,-0.210958,-0.000000152308,66.784728,95.392994)">
<stop offset="0" style="stop-color:rgb(0%,0%,0%);stop-opacity:0.313726;"/>
<stop offset="0.222222" style="stop-color:rgb(0%,0%,0%);stop-opacity:0.27451;"/>
<stop offset="1" style="stop-color:rgb(0%,0%,0%);stop-opacity:0;"/>
</radialGradient>
<radialGradient id="radial1" gradientUnits="userSpaceOnUse" cx="450.908936" cy="189.579361" fx="450.908936" fy="189.579361" r="21.166656" gradientTransform="matrix(-0.000000261256,0.117199,0.210958,0.000000152308,-19.155178,-11.291223)">
<stop offset="0" style="stop-color:rgb(0%,0%,0%);stop-opacity:0.313726;"/>
<stop offset="0.222222" style="stop-color:rgb(0%,0%,0%);stop-opacity:0.27451;"/>
<stop offset="1" style="stop-color:rgb(0%,0%,0%);stop-opacity:0;"/>
</radialGradient>
<radialGradient id="radial2" gradientUnits="userSpaceOnUse" cx="450.908936" cy="189.579361" fx="450.908936" fy="189.579361" r="21.166656" gradientTransform="matrix(-0.000000261256,-0.117199,0.210958,-0.000000152308,-19.155178,95.392994)">
<stop offset="0" style="stop-color:rgb(0%,0%,0%);stop-opacity:0.313726;"/>
<stop offset="0.222222" style="stop-color:rgb(0%,0%,0%);stop-opacity:0.27451;"/>
<stop offset="1" style="stop-color:rgb(0%,0%,0%);stop-opacity:0;"/>
</radialGradient>
<radialGradient id="radial3" gradientUnits="userSpaceOnUse" cx="450.908936" cy="189.579361" fx="450.908936" fy="189.579361" r="21.166656" gradientTransform="matrix(0.000000261256,0.117199,-0.210958,0.000000152308,66.784725,-11.291224)">
<stop offset="0" style="stop-color:rgb(0%,0%,0%);stop-opacity:0.313726;"/>
<stop offset="0.222222" style="stop-color:rgb(0%,0%,0%);stop-opacity:0.27451;"/>
<stop offset="1" style="stop-color:rgb(0%,0%,0%);stop-opacity:0;"/>
</radialGradient>
<linearGradient id="linear0" gradientUnits="userSpaceOnUse" x1="255.323059" y1="233.5" x2="255.323044" y2="254.666656" gradientTransform="matrix(0.0200401,0,0,0.093759,18.698079,20.158175)">
<stop offset="0" style="stop-color:rgb(0%,0%,0%);stop-opacity:0.27451;"/>
<stop offset="1" style="stop-color:rgb(0%,0%,0%);stop-opacity:0;"/>
</linearGradient>
<linearGradient id="linear1" gradientUnits="userSpaceOnUse" x1="254" y1="-168.666672" x2="254" y2="233.5" gradientTransform="matrix(0.093759,0,0,0.093759,0,20.158175)">
<stop offset="0" style="stop-color:rgb(56.470591%,64.313728%,68.235296%);stop-opacity:1;"/>
<stop offset="1" style="stop-color:rgb(32.941177%,43.137255%,47.843137%);stop-opacity:1;"/>
</linearGradient>
<linearGradient id="linear2" gradientUnits="userSpaceOnUse" x1="254" y1="-170" x2="254" y2="105.166656" gradientTransform="matrix(0.093759,0,0,-0.093759,0,20.158175)">
<stop offset="0" style="stop-color:rgb(74.117649%,74.117649%,74.117649%);stop-opacity:1;"/>
<stop offset="1" style="stop-color:rgb(87.843138%,87.843138%,87.843138%);stop-opacity:1;"/>
</linearGradient>
<linearGradient id="linear3" gradientUnits="userSpaceOnUse" x1="960" y1="415.118103" x2="960" y2="1455.118164" gradientTransform="matrix(0.0248071,0,0,0.0248071,0,0.00000000000000282)">
<stop offset="0" style="stop-color:rgb(38.039216%,38.039216%,38.039216%);stop-opacity:1;"/>
<stop offset="1" style="stop-color:rgb(25.882354%,25.882354%,25.882354%);stop-opacity:1;"/>
</linearGradient>
</defs>
<g id="surface1">
<path style=" stroke:none;fill-rule:nonzero;fill:url(#radial0);" d="M 27.289062 42.050781 L 31.257812 42.050781 L 31.257812 40.066406 L 27.289062 40.066406 Z M 27.289062 42.050781 "/>
<path style=" stroke:none;fill-rule:nonzero;fill:url(#radial1);" d="M 20.339844 42.050781 L 16.371094 42.050781 L 16.371094 44.035156 L 20.339844 44.035156 Z M 20.339844 42.050781 "/>
<path style=" stroke:none;fill-rule:nonzero;fill:url(#radial2);" d="M 20.339844 42.050781 L 16.371094 42.050781 L 16.371094 40.066406 L 20.339844 40.066406 Z M 20.339844 42.050781 "/>
<path style=" stroke:none;fill-rule:nonzero;fill:url(#radial3);" d="M 27.289062 42.050781 L 31.257812 42.050781 L 31.257812 44.035156 L 27.289062 44.035156 Z M 27.289062 42.050781 "/>
<path style=" stroke:none;fill-rule:nonzero;fill:url(#linear0);" d="M 20.339844 41.554688 L 27.289062 41.554688 L 27.289062 44.035156 L 20.339844 44.035156 Z M 20.339844 41.554688 "/>
<path style=" stroke:none;fill-rule:nonzero;fill:url(#linear1);" d="M 23.816406 4.34375 C 34.226562 4.34375 42.667969 12.785156 42.667969 23.199219 C 42.667969 33.609375 34.226562 42.050781 23.816406 42.050781 C 13.402344 42.050781 4.960938 33.609375 4.960938 23.199219 C 4.960938 12.785156 13.402344 4.34375 23.816406 4.34375 Z M 23.816406 4.34375 "/>
<path style=" stroke:none;fill-rule:nonzero;fill:rgb(0%,0%,0%);fill-opacity:0.196078;" d="M 23.816406 42.050781 C 13.371094 42.050781 4.960938 33.640625 4.960938 23.199219 C 4.960938 23.136719 4.960938 23.074219 4.960938 23.011719 C 5.0625 33.371094 13.433594 41.679688 23.816406 41.679688 C 34.199219 41.679688 42.570312 33.371094 42.667969 23.011719 C 42.667969 23.074219 42.667969 23.136719 42.667969 23.199219 C 42.667969 33.640625 34.257812 42.050781 23.816406 42.050781 Z M 23.816406 42.050781 "/>
<path style=" stroke:none;fill-rule:nonzero;fill:rgb(100%,100%,100%);fill-opacity:0.392157;" d="M 23.816406 4.34375 C 13.371094 4.34375 4.960938 12.753906 4.960938 23.199219 C 4.960938 23.257812 4.960938 23.320312 4.960938 23.382812 C 5.0625 13.023438 13.433594 4.714844 23.816406 4.714844 C 34.199219 4.714844 42.570312 13.023438 42.667969 23.382812 C 42.667969 23.320312 42.667969 23.257812 42.667969 23.199219 C 42.667969 12.753906 34.257812 4.34375 23.816406 4.34375 Z M 23.816406 4.34375 "/>
<path style=" stroke:none;fill-rule:nonzero;fill:rgb(12.941177%,12.941177%,12.941177%);fill-opacity:1;" d="M 23.816406 4.203125 C 13.292969 4.203125 4.820312 12.675781 4.820312 23.199219 C 4.820312 33.71875 13.292969 42.191406 23.816406 42.191406 C 34.335938 42.191406 42.808594 33.71875 42.808594 23.199219 C 42.808594 12.675781 34.335938 4.203125 23.816406 4.203125 Z M 23.816406 4.484375 C 34.183594 4.484375 42.527344 12.828125 42.527344 23.199219 C 42.527344 33.566406 34.183594 41.910156 23.816406 41.910156 C 13.445312 41.910156 5.101562 33.566406 5.101562 23.199219 C 5.101562 12.828125 13.445312 4.484375 23.816406 4.484375 Z M 23.816406 4.484375 "/>
<path style=" stroke:none;fill-rule:nonzero;fill:url(#linear2);" d="M 23.816406 36.097656 C 30.9375 36.097656 36.714844 30.320312 36.714844 23.199219 C 36.714844 16.074219 30.9375 10.296875 23.816406 10.296875 C 16.691406 10.296875 10.914062 16.074219 10.914062 23.199219 C 10.914062 30.320312 16.691406 36.097656 23.816406 36.097656 Z M 23.816406 36.097656 "/>
<path style=" stroke:none;fill-rule:nonzero;fill:rgb(0%,0%,0%);fill-opacity:0.235294;" d="M 23.816406 10.296875 C 16.667969 10.296875 10.914062 16.050781 10.914062 23.199219 C 10.914062 23.363281 10.917969 23.527344 10.925781 23.695312 C 11.183594 16.777344 16.835938 11.289062 23.816406 11.289062 C 30.796875 11.289062 36.445312 16.777344 36.707031 23.695312 C 36.710938 23.527344 36.714844 23.363281 36.714844 23.199219 C 36.714844 16.050781 30.960938 10.296875 23.816406 10.296875 Z M 23.816406 10.296875 "/>
<path style=" stroke:none;fill-rule:nonzero;fill:rgb(100%,100%,100%);fill-opacity:0.392157;" d="M 10.925781 23.695312 C 10.917969 23.859375 10.914062 24.023438 10.914062 24.191406 C 10.914062 31.335938 16.667969 37.089844 23.816406 37.089844 C 30.960938 37.089844 36.714844 31.335938 36.714844 24.191406 C 36.714844 24.023438 36.710938 23.859375 36.707031 23.695312 C 36.445312 30.609375 30.796875 36.097656 23.816406 36.097656 C 16.835938 36.097656 11.183594 30.609375 10.925781 23.695312 Z M 10.925781 23.695312 "/>
<path style="fill:none;stroke-width:3;stroke-linecap:round;stroke-linejoin:miter;stroke:rgb(12.941177%,12.941177%,12.941177%);stroke-opacity:1;stroke-miterlimit:4;" d="M 254.017409 -170.004901 C 329.96849 -170.004901 391.587605 -108.385785 391.587605 -32.434704 C 391.587605 43.558039 329.96849 105.177154 254.017409 105.177154 C 178.024666 105.177154 116.40555 43.558039 116.40555 -32.434704 C 116.40555 -108.385785 178.024666 -170.004901 254.017409 -170.004901 Z M 254.017409 -170.004901 " transform="matrix(0.093759,0,0,-0.093759,0,20.158175)"/>
<path style=" stroke:none;fill-rule:nonzero;fill:url(#linear3);" d="M 21.832031 15.257812 C 20.179688 15.257812 18.851562 16.585938 18.851562 18.234375 L 18.851562 20.21875 C 18.851562 21.257812 19.378906 22.167969 20.179688 22.703125 C 19.378906 23.234375 18.851562 24.144531 18.851562 25.183594 L 18.851562 28.160156 C 18.851562 29.808594 20.179688 31.136719 21.832031 31.136719 L 25.800781 31.136719 C 27.449219 31.136719 28.777344 29.808594 28.777344 28.160156 L 28.777344 25.183594 C 28.777344 24.144531 28.25 23.234375 27.449219 22.703125 C 28.25 22.167969 28.777344 21.257812 28.777344 20.21875 L 28.777344 18.234375 C 28.777344 16.585938 27.449219 15.257812 25.800781 15.257812 Z M 22.328125 17.242188 L 25.304688 17.242188 C 26.128906 17.242188 26.792969 17.90625 26.792969 18.730469 L 26.792969 20.21875 C 26.792969 21.046875 26.128906 21.710938 25.304688 21.710938 L 22.328125 21.710938 C 21.5 21.710938 20.839844 21.046875 20.839844 20.21875 L 20.839844 18.730469 C 20.839844 17.90625 21.5 17.242188 22.328125 17.242188 Z M 22.328125 23.695312 L 25.304688 23.695312 C 26.128906 23.695312 26.792969 24.359375 26.792969 25.183594 L 26.792969 27.664062 C 26.792969 28.488281 26.128906 29.152344 25.304688 29.152344 L 22.328125 29.152344 C 21.5 29.152344 20.839844 28.488281 20.839844 27.664062 L 20.839844 25.183594 C 20.839844 24.359375 21.5 23.695312 22.328125 23.695312 Z M 22.328125 23.695312 "/>
<path style=" stroke:none;fill-rule:nonzero;fill:rgb(100%,100%,100%);fill-opacity:0.313726;" d="M 21.832031 15.257812 C 20.179688 15.257812 18.851562 16.585938 18.851562 18.234375 L 18.851562 18.730469 C 18.851562 17.082031 20.179688 15.753906 21.832031 15.753906 L 25.800781 15.753906 C 27.449219 15.753906 28.777344 17.082031 28.777344 18.730469 L 28.777344 18.234375 C 28.777344 16.585938 27.449219 15.257812 25.800781 15.257812 Z M 20.839844 20.21875 L 20.839844 20.71875 C 20.839844 21.542969 21.5 22.207031 22.328125 22.207031 L 25.304688 22.207031 C 26.128906 22.207031 26.792969 21.542969 26.792969 20.71875 L 26.792969 20.21875 C 26.792969 21.046875 26.128906 21.710938 25.304688 21.710938 L 22.328125 21.710938 C 21.5 21.710938 20.839844 21.046875 20.839844 20.21875 Z M 19.859375 22.949219 C 19.242188 23.492188 18.851562 24.289062 18.851562 25.183594 L 18.851562 25.679688 C 18.851562 24.640625 19.378906 23.730469 20.179688 23.199219 C 20.066406 23.121094 19.960938 23.039062 19.859375 22.949219 Z M 27.773438 22.949219 C 27.671875 23.039062 27.5625 23.121094 27.449219 23.199219 C 28.25 23.730469 28.777344 24.640625 28.777344 25.679688 L 28.777344 25.183594 C 28.777344 24.289062 28.386719 23.492188 27.773438 22.949219 Z M 20.839844 27.664062 L 20.839844 28.160156 C 20.839844 28.984375 21.5 29.648438 22.328125 29.648438 L 25.304688 29.648438 C 26.128906 29.648438 26.792969 28.984375 26.792969 28.160156 L 26.792969 27.664062 C 26.792969 28.488281 26.128906 29.152344 25.304688 29.152344 L 22.328125 29.152344 C 21.5 29.152344 20.839844 28.488281 20.839844 27.664062 Z M 20.839844 27.664062 "/>
<path style=" stroke:none;fill-rule:nonzero;fill:rgb(0%,0%,0%);fill-opacity:0.235294;" d="M 22.328125 17.242188 C 21.5 17.242188 20.839844 17.90625 20.839844 18.730469 L 20.839844 19.476562 C 20.839844 18.652344 21.5 17.988281 22.328125 17.988281 L 25.304688 17.988281 C 26.128906 17.988281 26.792969 18.652344 26.792969 19.476562 L 26.792969 18.730469 C 26.792969 17.90625 26.128906 17.242188 25.304688 17.242188 Z M 18.851562 20.21875 L 18.851562 20.964844 C 18.851562 21.789062 19.1875 22.535156 19.726562 23.074219 C 19.863281 22.933594 20.015625 22.808594 20.179688 22.703125 C 19.378906 22.167969 18.851562 21.257812 18.851562 20.21875 Z M 28.777344 20.21875 C 28.777344 21.257812 28.25 22.167969 27.449219 22.703125 C 27.613281 22.808594 27.765625 22.933594 27.902344 23.074219 C 28.441406 22.535156 28.777344 21.789062 28.777344 20.964844 Z M 22.328125 23.695312 C 21.5 23.695312 20.839844 24.359375 20.839844 25.183594 L 20.839844 25.925781 C 20.839844 25.101562 21.5 24.4375 22.328125 24.4375 L 25.304688 24.4375 C 26.128906 24.4375 26.792969 25.101562 26.792969 25.925781 L 26.792969 25.183594 C 26.792969 24.359375 26.128906 23.695312 25.304688 23.695312 Z M 18.851562 28.160156 L 18.851562 28.902344 C 18.851562 30.550781 20.179688 31.878906 21.832031 31.878906 L 25.800781 31.878906 C 27.449219 31.878906 28.777344 30.550781 28.777344 28.902344 L 28.777344 28.160156 C 28.777344 29.808594 27.449219 31.136719 25.800781 31.136719 L 21.832031 31.136719 C 20.179688 31.136719 18.851562 29.808594 18.851562 28.160156 Z M 18.851562 28.160156 "/>
<path style="fill:none;stroke-width:11.338583;stroke-linecap:round;stroke-linejoin:round;stroke:rgb(12.941177%,12.941177%,12.941177%);stroke-opacity:1;stroke-miterlimit:4;" d="M 880.073484 615.059407 C 813.465668 615.059407 759.927471 668.597605 759.927471 735.047955 L 759.927471 815.040321 C 759.927471 856.926087 781.185284 893.615498 813.465668 915.188243 C 781.185284 936.603521 759.927471 973.292933 759.927471 1015.178699 L 759.927471 1135.167247 C 759.927471 1201.617598 813.465668 1255.155795 880.073484 1255.155795 L 1040.058214 1255.155795 C 1106.508565 1255.155795 1160.046762 1201.617598 1160.046762 1135.167247 L 1160.046762 1015.178699 C 1160.046762 973.292933 1138.788949 936.603521 1106.508565 915.188243 C 1138.788949 893.615498 1160.046762 856.926087 1160.046762 815.040321 L 1160.046762 735.047955 C 1160.046762 668.597605 1106.508565 615.059407 1040.058214 615.059407 Z M 900.071575 695.051773 L 1020.060123 695.051773 C 1053.285298 695.051773 1080.054397 721.820871 1080.054397 755.046047 L 1080.054397 815.040321 C 1080.054397 848.422961 1053.285298 875.19206 1020.060123 875.19206 L 900.071575 875.19206 C 866.688934 875.19206 840.077301 848.422961 840.077301 815.040321 L 840.077301 755.046047 C 840.077301 721.820871 866.688934 695.051773 900.071575 695.051773 Z M 900.071575 955.184425 L 1020.060123 955.184425 C 1053.285298 955.184425 1080.054397 981.953524 1080.054397 1015.178699 L 1080.054397 1115.169156 C 1080.054397 1148.394331 1053.285298 1175.16343 1020.060123 1175.16343 L 900.071575 1175.16343 C 866.688934 1175.16343 840.077301 1148.394331 840.077301 1115.169156 L 840.077301 1015.178699 C 840.077301 981.953524 866.688934 955.184425 900.071575 955.184425 Z M 900.071575 955.184425 " transform="matrix(0.0248071,0,0,0.0248071,0,0)"/>
</g>
</svg>
